contributed-vectors/fraenk.svg

<svg xmlns="http://www.w3.org/2000/svg" xml:space="preserve" style="fill-rule:evenodd;clip-rule:evenodd;stroke-linejoin:round;stroke-miterlimit:2" viewBox="0 0 192 192"><circle cx="96" cy="96" r="88" style="fill:#ececec"/><path d="M64.8 20.8v1H49.5c.3 3.1 2.6 4.9 5.8 4.9a8.607 8.607 0 0 0 6.1-2.8l2.7 3.9a12.704 12.704 0 0 1-8.8 3.6 11.007 11.007 0 0 1-8.7-3.6 7.29 7.29 0 0 1-2.6 2.3 11.4 11.4 0 0 1-5.7 1.3 12.57 12.57 0 0 1-2.7-.4 8.493 8.493 0 0 1-2.6-1.1 6.096 6.096 0 0 1-1.9-2 5.103 5.103 0 0 1-.8-2.8c0-1.298.421-2.562 1.2-3.6a7.301 7.301 0 0 1 3.3-2.2 23.144 23.144 0 0 1 4.4-.8c1.797-.133 3.6-.167 5.4-.1V18a3.799 3.799 0 0 0-1.4-2.6 5.1 5.1 0 0 0-3.4-1 7.006 7.006 0 0 0-3.1.7 8.213 8.213 0 0 0-2.6 1.6l-2.6-3.5a10.992 10.992 0 0 1 4.2-2.4 14.09 14.09 0 0 1 4.5-.7 8.606 8.606 0 0 1 6.8 3.1 10.907 10.907 0 0 1 7.9-3.1c6.2 0 9.9 3.8 9.9 10.7Zm-20.2 1.9v-.9h-1.1c-2.5.1-4.8.1-6.2.6-1.4.5-2.1 1.2-2.1 2.3a2.202 2.202 0 0 0 1.1 1.7l1.2.4h1.2a6.402 6.402 0 0 0 4-1.1 5.803 5.803 0 0 0 1.9-3Zm14.7-4.3c-.2-2.6-2-4-4.7-4s-4.5 1.2-5 4h9.7Z" style="fill:#56595b;fill-rule:nonzero" transform="translate(6.777 57.055) scale(1.87641)"/></svg>

<?xml version="1.0" encoding="UTF-8" standalone="no"?>
<!DOCTYPE svg PUBLIC "-//W3C//DTD SVG 1.1//EN" "http://www.w3.org/Graphics/SVG/1.1/DTD/svg11.dtd">
<svg width="100%" height="100%" viewBox="0 0 192 192" version="1.1" xmlns="http://www.w3.org/2000/svg" xmlns:xlink="http://www.w3.org/1999/xlink" xml:space="preserve" xmlns:serif="http://www.serif.com/" style="fill-rule:evenodd;clip-rule:evenodd;stroke-linejoin:round;stroke-miterlimit:2;">
    <g>
        <circle cx="96" cy="96" r="88" style="fill:rgb(236,236,236);"/>
    </g>
    <g transform="matrix(1.87641,0,0,1.87641,6.77721,57.0552)">
        <path d="M64.8,20.8L64.8,21.8L49.5,21.8C49.8,24.9 52.1,26.7 55.3,26.7C57.628,26.631 59.83,25.62 61.4,23.9L64.1,27.8C61.744,30.093 58.588,31.385 55.3,31.4C52.009,31.564 48.813,30.242 46.6,27.8C45.931,28.765 45.039,29.554 44,30.1C42.245,31.021 40.281,31.47 38.3,31.4C37.388,31.365 36.483,31.231 35.6,31C34.678,30.781 33.799,30.409 33,29.9C32.222,29.387 31.572,28.703 31.1,27.9C30.567,27.064 30.289,26.091 30.3,25.1C30.3,23.802 30.721,22.538 31.5,21.5C32.376,20.476 33.518,19.715 34.8,19.3C36.237,18.892 37.711,18.624 39.2,18.5C40.997,18.367 42.8,18.333 44.6,18.4L44.6,18C44.503,16.98 43.998,16.042 43.2,15.4C42.223,14.671 41.016,14.316 39.8,14.4C38.727,14.393 37.666,14.632 36.7,15.1C35.741,15.466 34.859,16.009 34.1,16.7L31.5,13.2C32.705,12.098 34.139,11.278 35.7,10.8C37.152,10.324 38.672,10.088 40.2,10.1C42.819,10.043 45.325,11.186 47,13.2C49.106,11.143 51.957,10.024 54.9,10.1C61.1,10.1 64.8,13.9 64.8,20.8ZM44.6,22.7L44.6,21.8L43.5,21.8C41,21.9 38.7,21.9 37.3,22.4C35.9,22.9 35.2,23.6 35.2,24.7C35.269,25.411 35.679,26.046 36.3,26.4L37.5,26.8L38.7,26.8C40.118,26.888 41.526,26.5 42.7,25.7C43.631,24.923 44.296,23.874 44.6,22.7ZM59.3,18.4C59.1,15.8 57.3,14.4 54.6,14.4C51.9,14.4 50.1,15.6 49.6,18.4L59.3,18.4Z" style="fill:rgb(86,89,91);fill-rule:nonzero;"/>
    </g>
</svg>
